X:1
T:Title
%%score { ( 1 3 ) | ( 2 4 ) }
L:1/8
M:4/4
K:G
V:1 treble nm="Grand Piano"
V:3 treble 
V:2 bass 
V:4 bass 
V:1
 z4 z2 z[Q:1/4=84] D | G>G G>A B>B B>G | B>B B>c d>d d>B | [Ac]>[^GB] [Ac]>[Fd] B>_B =B>B | %4
 z4 A4[K:bass][K:treble] | [B,G]>[B,G] [DG]>A B>B B>G | B>B B>c d>d d>d | %7
 [Ge]>[Ge] [EGc]>[Ge] d>d B>B |[M:15/16] [Fd]->[Fd][CDF]-[CDF][G,B,DG]/- [G,B,DG]3 | %9
[M:1/16] [B,D]/ |[M:4/4] [DGB]2 [DGB]2 [DGB]3- [DGB]/[GB]/ | %11
 [DFc]2 [DFc]>[DFc] [DFc]3- [DFc]/[GB]/ | [FA]>[=F^G] [^FA]>[=GB] [Ac]>[^GB] [Ac]>[Bd] | %13
 e2 d2 d3- d/[DAc]/ | [DGB]2 [DGB]2 [=FGB]3- [FGB]/[GB]/ | [EGc]2 [CGc]>[CEc] [EGc]3- [EGc]/e/ | %16
 d>^c d>e d>B [^CGA]>[CG] |[M:7/8] [DGB]2 [CDA]2 [B,DG]3 |] %18
V:2
 z4 z2 z [G,B,] | [G,B,]>[G,B,] [G,B,]>[G,C][K:treble] [G,D]>[G,D] [G,D]>[G,B,D] | %2
 [G,DG]>[G,DG] [G,DG]>[G,A,G] [G,B,G]>[G,B,G] [G,B,G]>[G,DG] | %3
 [D,D]>[D,D] [D,D]>[D,D][K:treble] [G,DG]>[G,^CG] [G,DG]>[G,DG] | %4
 [A,^CG]2[K:bass] [G,A,C]2 =C->[E,C-] [D,C][D,F,C] | %5
 [G,,G,]>[G,,G,] [B,,G,]>[D,F,D][K:treble] [G,D]>[G,D] [G,D]>[G,B,D] | %6
 [G,DG]>[G,DG] [G,DG]>[G,A,G] [G,B,G]>[G,B,G] [G,B,G]>[G,B,G] | %7
 [C,C]>[C,C] C,>[C,C][K:treble] [G,B,G]>[G,B,G] [G,DG]>[K:bass][G,D] | %8
[M:15/16] [D,A,]->[D,A,]D,-D,G,,/- G,,3 |[M:1/16] G,/ |[M:4/4] G,2 D,2 G,2 z z/ D/ | %11
 A,2 D,>D, A,2 z z/ D/ | [D,D]>[D,D] [D,D]>[D,D] [D,D]>[D,D] [D,D]>[D,D] | %13
 [G,CG]2 [G,B,G]2 [G,B,G]3- [G,B,G]/[K:bass]D,/ | z4 z2 G,2 | C,2 E,>G, C,2 z z/[K:treble] [CG]/ | %16
 [G,B,G]>[G,_B,G] [G,=B,G]>[G,CG] [G,B,G]>[G,B,G][K:bass] E,>E, |[M:7/8] D,2 D,2 G,,3 |] %18
V:3
 x8 | x8 | x8 | x8 | A2 E2 z z/[K:bass] G,/ F,[K:treble]D | x8 | x8 | x8 |[M:15/16] x15/2 | %9
[M:1/16] x/ |[M:4/4] x8 | x8 | x8 | x8 | x8 | x8 | x8 |[M:7/8] x7 |] %18
V:4
 x8 | x4[K:treble] x4 | x8 | x4[K:treble] x4 | z4[K:bass] [F,A,]2 z2 | x4[K:treble] x4 | x8 | %7
 x4[K:treble] x7/2[K:bass] x/ |[M:15/16] x15/2 |[M:1/16] x/ |[M:4/4] z4 z2 D,2 | z4 z2 D,2 | x8 | %13
 x15/2[K:bass] x/ | G,,2 G,2 G,,2 z z/ =F/ | z4 z2 C,2[K:treble] | x6[K:bass] x2 |[M:7/8] x7 |] %18

